public/icons/img/email-preferences.svg

<?xml version="1.0" encoding="UTF-8"?>
<svg width="68px" height="41px" viewBox="0 0 68 41" version="1.1" xmlns="http://www.w3.org/2000/svg" xmlns:xlink="http://www.w3.org/1999/xlink">
    <title>UI Elements/Icon / Account Settings / Email Preferences</title>
    <defs>
        <rect id="path-1" x="0" y="0" width="67.5" height="40.5" rx="1"></rect>
    </defs>
    <g id="Iconography-&amp;-Interface-Details" stroke="none" stroke-width="1" fill="none" fill-rule="evenodd">
        <g id="Icons" transform="translate(-1121.000000, -164.000000)">
            <g id="UI-Elements/Icon-/-Account-Settings-/-Email-Preferences" transform="translate(1119.000000, 153.000000)">
                <rect id="Rectangle" x="0" y="0" width="72" height="63"></rect>
                <g id="Triangle" transform="translate(36.000000, 31.500000) scale(1, -1) translate(-36.000000, -31.500000) translate(2.250000, 11.250000)">
                    <mask id="mask-2" fill="white">
                        <use xlink:href="#path-1"></use>
                    </mask>
                    <use id="Mask" fill="#007E4E" xlink:href="#path-1"></use>
                    <path d="M33.75,-1.39025843 C34.6792593,-1.39025843 35.6085187,-1.13162355 36.4252604,-0.614353803 L36.4252604,-0.614353803 L70.9479243,21.25 L-3.44792431,21.25 L31.0747396,-0.614353803 C31.8914813,-1.13162355 32.8207407,-1.39025843 33.75,-1.39025843 Z" id="Triangle-Copy" stroke="#004B2E" stroke-width="2" mask="url(#mask-2)" transform="translate(33.750000, 9.562500) scale(1, -1) translate(-33.750000, -9.562500) "></path>
                    <path d="M36.1323079,11.1139897 L67.5,34.370452 L67.5,34.370452 L67.5,39.375 L0,39.375 L0,34.370452 L31.3676921,11.1139897 C32.7826577,10.0649137 34.7173423,10.0649137 36.1323079,11.1139897 Z" id="Triangle-Copy-3" fill-opacity="0.5" fill="#000000" opacity="0.25" mask="url(#mask-2)"></path>
                    <path d="M36.0438494,16.2306946 L67.5,38.25 L67.5,38.25 L0,38.25 L31.4561506,16.2306946 C32.8334312,15.2665981 34.6665688,15.2665981 36.0438494,16.2306946 Z" fill="#004B2E" mask="url(#mask-2)"></path>
                    <path d="M33.75,14.1652822 C34.9296367,14.1652822 36.1092735,14.5436705 37.0963735,15.3004472 L37.0963735,15.3004472 L71.9218772,42 L-4.42187715,42 L30.4036265,15.3004472 C31.3907265,14.5436705 32.5703633,14.1652822 33.75,14.1652822 Z" id="Triangle-Copy-2" stroke="#004B2E" stroke-width="3" fill="#00B16E" mask="url(#mask-2)"></path>
                </g>
            </g>
        </g>
    </g>
</svg>

<svg xmlns="http://www.w3.org/2000/svg" xmlns:xlink="http://www.w3.org/1999/xlink" width="68" height="41"
     xmlns:v="https://vecta.io/nano">
    <defs>
        <rect id="A" width="67.5" height="40.5" rx="1"/>
    </defs>
    <g transform="matrix(1 0 0 -1 .25 40.75)" fill="none" fill-rule="evenodd">
        <mask id="B" fill="#fff">
            <use xlink:href="#A"/>
        </mask>
        <use fill="#007e4e" xlink:href="#A"/>
        <path d="M33.75-1.4c.93 0 1.86.26 2.675.776h0L70.948 21.25H-3.448L31.075-.614c.817-.517 1.746-.776 2.675-.776z"
              stroke="#004b2e" stroke-width="2" mask="url(#B)" transform="matrix(1 0 0 -1 0 19.125)"/>
        <path d="M36.132 11.114L67.5 34.37v5.005H0V34.37l31.368-23.256a4 4 0 0 1 4.765 0z" fill-opacity=".5" fill="#000"
              opacity=".25" mask="url(#B)"/>
        <path d="M36.044 16.23L67.5 38.25H0l31.456-22.02a4 4 0 0 1 4.588 0z" fill="#004b2e" mask="url(#B)"/>
        <path d="M33.75 14.165a5.49 5.49 0 0 1 3.346 1.135h0L71.922 42H-4.422l34.826-26.7a5.49 5.49 0 0 1 3.346-1.135z"
              stroke="#004b2e" stroke-width="3" fill="#00b16e" mask="url(#B)"/>
    </g>
</svg>
